dist/img/cottage.svg

<svg width="100" height="100" viewBox="0 0 100 100" fill="none" xmlns="http://www.w3.org/2000/svg">
<g clip-path="url(#clip0)">
<path d="M82.4164 82.4013C84.0082 82.4013 85.3033 81.1064 85.3033 79.5144V69.0778C85.3033 67.486 84.0082 66.1909 82.4164 66.1909H71.9797C70.3879 66.1909 69.0928 67.4858 69.0928 69.0778V79.5144C69.0928 81.1062 70.3879 82.4013 71.9797 82.4013H82.4164ZM72.044 75.8263H75.7226V79.45H72.044V75.8263ZM78.6737 79.4502V75.8263H82.3523V79.45H78.6737V79.4502ZM82.3523 72.8753H78.6737V69.1418H82.3523V72.8753ZM75.7226 69.142V72.8755H72.044V69.142H75.7226Z" fill="black"/>
<path d="M28.0024 82.4013C29.5942 82.4013 30.8893 81.1064 30.8893 79.5144V69.0778C30.8893 67.486 29.5942 66.1909 28.0024 66.1909H17.5659C15.9741 66.1909 14.679 67.4858 14.679 69.0778V79.5144C14.679 81.1062 15.9741 82.4013 17.5659 82.4013H28.0024ZM17.63 75.8263H21.3086V79.45H17.63V75.8263ZM24.2599 79.4502V75.8263H27.9383V79.45H24.2599V79.4502ZM27.9383 72.8753H24.2599V69.1418H27.9383V72.8753ZM21.3088 69.142V72.8755H17.63V69.142H21.3088Z" fill="black"/>
<path d="M96.0845 97.049H91.7429V44.3167C92.293 44.2024 92.7847 43.9081 93.1472 43.4682L96.0009 40.0056C96.4221 39.4949 96.6189 38.8505 96.5553 38.1917C96.4918 37.5328 96.1754 36.9381 95.6649 36.517L52.666 1.07737C50.9119 -0.367863 48.3742 -0.358223 46.6315 1.10117L4.32134 36.5347C3.27371 37.4122 3.13521 38.9782 4.01266 40.0258L6.89348 43.466C7.25332 43.8955 7.73709 44.1827 8.27674 44.2968V68.8284C8.27674 69.6433 8.93739 70.3039 9.75227 70.3039C10.5672 70.3039 11.2278 69.6433 11.2278 68.8284V55.7001H14.7138V56.9352C14.7138 59.567 16.8551 61.7081 19.4868 61.7081C22.1186 61.7081 24.2599 59.567 24.2599 56.9352V55.7001H29.9755V56.9352C29.9755 59.567 32.1168 61.7081 34.7485 61.7081C37.3803 61.7081 39.5214 59.567 39.5214 56.9352V55.7001H45.2372V56.9352C45.2372 59.567 47.3783 61.7081 50.01 61.7081C52.6418 61.7081 54.7831 59.567 54.7831 56.9352V55.7001H60.4987V56.9352C60.4987 59.567 62.64 61.7081 65.2717 61.7081C67.9035 61.7081 70.0448 59.567 70.0448 56.9352V55.7001H75.7604V56.9352C75.7604 59.567 77.9017 61.7081 80.5334 61.7081C83.1652 61.7081 85.3063 59.567 85.3063 56.9352V55.7001H88.7925V87.4484H83.5384C82.7235 87.4484 82.0629 88.109 82.0629 88.9239C82.0629 89.7388 82.7235 90.3995 83.5384 90.3995H88.7925V97.049H64.7777V90.3995H77.6355C78.4506 90.3995 79.111 89.7388 79.111 88.9239C79.111 88.109 78.4506 87.4484 77.6355 87.4484H64.7777V71.2008C64.7777 68.4811 62.5652 66.2686 59.8455 66.2686H40.1742C37.4547 66.2686 35.2421 68.4811 35.2421 71.2008V87.4484H11.2278V74.7305C11.2278 73.9156 10.5672 73.255 9.75227 73.255C8.93739 73.255 8.27674 73.9156 8.27674 74.7305V97.0492H3.91547C3.10059 97.0492 2.43994 97.7098 2.43994 98.5247C2.43994 99.3396 3.10059 100 3.91547 100H96.0845C96.8996 100 97.5601 99.3396 97.5601 98.5247C97.5601 97.7098 96.8994 97.049 96.0845 97.049ZM6.5787 38.4935L48.5262 3.36365C49.1798 2.81653 50.1316 2.81259 50.7891 3.3548L93.4229 38.4937L91.1706 41.2263L50.6181 7.80283C50.3455 7.57816 50.0126 7.46602 49.6795 7.46602C49.3427 7.46602 49.0061 7.58091 48.7322 7.81031L8.8522 41.2086L6.5787 38.4935ZM58.8298 18.3952H40.6894L49.6872 10.8597L58.8298 18.3952ZM21.3088 56.935C21.3088 57.9396 20.4916 58.7568 19.4868 58.7568C18.4823 58.7568 17.6649 57.9396 17.6649 56.935V55.6999H21.3086V56.935H21.3088ZM36.5701 56.935C36.5701 57.9396 35.7529 58.7568 34.7483 58.7568C33.7438 58.7568 32.9264 57.9396 32.9264 56.935V55.6999H36.5699V56.935H36.5701ZM51.8316 56.935C51.8316 57.9396 51.0144 58.7568 50.0096 58.7568C49.0053 58.7568 48.1879 57.9396 48.1879 56.935V55.6999H51.8316V56.935ZM67.0931 56.935C67.0931 57.9396 66.2759 58.7568 65.2711 58.7568C64.2664 58.7568 63.4492 57.9396 63.4492 56.935V55.6999H67.0931V56.935ZM82.3546 56.935C82.3546 57.9396 81.5374 58.7568 80.5328 58.7568C79.5283 58.7568 78.7109 57.9396 78.7109 56.935V55.6999H82.3546V56.935ZM11.2278 52.7489V49.4462H80.5866C81.4016 49.4462 82.0621 48.7856 82.0621 47.9707C82.0621 47.1558 81.4016 46.4952 80.5866 46.4952H72.8499V39.3465H74.7023C75.5172 39.3465 76.1779 38.6859 76.1779 37.871C76.1779 37.0561 75.5172 36.3955 74.7023 36.3955H64.3203V30.4894C64.3203 28.6214 62.8005 27.1016 60.9323 27.1016H39.169C37.301 27.1016 35.7812 28.6214 35.7812 30.4894V36.3955H25.2975C24.4824 36.3955 23.8219 37.0561 23.8219 37.871C23.8219 38.6859 24.4824 39.3465 25.2975 39.3465H27.2519V46.4952H11.2278V43.0682L37.1656 21.346H62.4102L88.7917 43.0898V46.495H86.4887C85.6738 46.495 85.0131 47.1556 85.0131 47.9705C85.0131 48.7854 85.6738 49.446 86.4887 49.446H88.7917V52.7487H11.2278V52.7489ZM35.7812 39.3465V46.4952H30.2029V39.3465H35.7812ZM64.3205 46.4952V39.3465H69.8988V46.4952H64.3205ZM44.3106 39.3465V46.4952H38.7323V39.3465H44.3106ZM47.2616 39.3465H52.8401V46.4952H47.2616V39.3465ZM55.791 39.3465H61.3693V46.4952H55.791V39.3465ZM61.3695 36.3955H38.7323V30.4894C38.7323 30.2486 38.9282 30.0526 39.169 30.0526H60.9325C61.1735 30.0526 61.3695 30.2486 61.3695 30.4894V36.3955ZM61.8267 71.2008V97.049H58.5663V69.2197H59.8455C60.9378 69.2197 61.8267 70.1084 61.8267 71.2008ZM51.3715 69.2197H55.6151V97.049H51.3715V69.2197ZM48.4204 97.049H44.4044V69.2197H48.4204V97.049ZM40.174 69.2197H41.4533V97.049H38.193V71.2008C38.193 70.1084 39.0819 69.2197 40.174 69.2197ZM35.242 90.3993V97.0488H11.2278V90.3993H35.242Z" fill="black"/>
</g>
<defs>
<clipPath id="clip0">
<rect width="100" height="100" fill="white"/>
</clipPath>
</defs>
</svg>

<svg width="100" height="100" fill="none" xmlns="http://www.w3.org/2000/svg"><g clip-path="url(#a)" fill="#000"><path d="M82.416 82.401a2.89 2.89 0 0 0 2.887-2.887V69.078a2.89 2.89 0 0 0-2.887-2.887H71.98a2.89 2.89 0 0 0-2.887 2.887v10.436a2.89 2.89 0 0 0 2.887 2.887h10.436Zm-10.372-6.575h3.679v3.624h-3.679v-3.624Zm6.63 3.624v-3.624h3.678v3.624h-3.678Zm3.678-6.575h-3.678v-3.733h3.678v3.733Zm-6.63-3.733v3.734h-3.678v-3.734h3.679ZM28.002 82.401a2.89 2.89 0 0 0 2.887-2.887V69.078a2.89 2.89 0 0 0-2.887-2.887H17.566a2.89 2.89 0 0 0-2.887 2.887v10.436a2.89 2.89 0 0 0 2.887 2.887h10.436ZM17.63 75.826h3.679v3.624H17.63v-3.624Zm6.63 3.624v-3.624h3.678v3.624H24.26Zm3.678-6.575H24.26v-3.733h3.678v3.733Zm-6.63-3.733v3.734H17.63v-3.734h3.679Z"/><path d="M96.085 97.049h-4.342V44.317a2.459 2.459 0 0 0 1.404-.849l2.854-3.462a2.46 2.46 0 0 0 .554-1.814 2.463 2.463 0 0 0-.89-1.675L52.666 1.077a4.724 4.724 0 0 0-6.034.024L4.322 36.535a2.481 2.481 0 0 0-.31 3.49l2.881 3.441c.36.43.844.717 1.384.83v24.532a1.476 1.476 0 0 0 2.95 0V55.7h3.487v1.235a4.778 4.778 0 0 0 4.773 4.773 4.778 4.778 0 0 0 4.773-4.773V55.7h5.715v1.235a4.778 4.778 0 0 0 4.773 4.773 4.778 4.778 0 0 0 4.773-4.773V55.7h5.716v1.235a4.778 4.778 0 0 0 4.773 4.773 4.778 4.778 0 0 0 4.773-4.773V55.7H60.5v1.235a4.778 4.778 0 0 0 4.773 4.773 4.778 4.778 0 0 0 4.773-4.773V55.7h5.715v1.235a4.778 4.778 0 0 0 4.773 4.773 4.778 4.778 0 0 0 4.773-4.773V55.7h3.487v31.748h-5.255a1.475 1.475 0 1 0 0 2.952h5.255v6.649H64.778v-6.65h12.857a1.475 1.475 0 1 0 0-2.95H64.778V71.2a4.938 4.938 0 0 0-4.933-4.932h-19.67a4.938 4.938 0 0 0-4.933 4.932v16.247H11.228V74.731a1.476 1.476 0 0 0-2.951 0v22.318H3.915a1.476 1.476 0 0 0 0 2.951h92.17a1.475 1.475 0 1 0 0-2.951ZM6.579 38.493l41.947-35.13a1.771 1.771 0 0 1 2.263-.008l42.634 35.139-2.252 2.732L50.618 7.803a1.473 1.473 0 0 0-1.886.007L8.852 41.21 6.58 38.493Zm52.25-20.098H40.69l8.998-7.535 9.143 7.535Zm-37.52 38.54a1.824 1.824 0 0 1-1.822 1.822 1.824 1.824 0 0 1-1.822-1.822V55.7h3.644v1.235Zm15.261 0a1.824 1.824 0 0 1-1.822 1.822 1.824 1.824 0 0 1-1.822-1.822V55.7h3.644v1.235Zm15.262 0a1.824 1.824 0 0 1-1.822 1.822 1.824 1.824 0 0 1-1.822-1.822V55.7h3.644v1.235Zm15.261 0a1.824 1.824 0 0 1-1.822 1.822 1.824 1.824 0 0 1-1.822-1.822V55.7h3.644v1.235Zm15.262 0a1.824 1.824 0 0 1-1.822 1.822 1.824 1.824 0 0 1-1.822-1.822V55.7h3.644v1.235Zm-71.127-4.186v-3.303h69.359a1.475 1.475 0 1 0 0-2.95H72.85v-7.15h1.852a1.476 1.476 0 1 0 0-2.95H64.32v-5.907a3.392 3.392 0 0 0-3.388-3.387H39.17a3.392 3.392 0 0 0-3.388 3.387v5.906H25.298a1.475 1.475 0 1 0 0 2.951h1.954v7.15H11.228v-3.428l25.938-21.722H62.41L88.792 43.09v3.405h-2.303a1.476 1.476 0 1 0 0 2.951h2.303v3.303H11.228ZM35.78 39.346v7.15h-5.578v-7.15h5.578Zm28.54 7.15v-7.15h5.578v7.15H64.32Zm-20.01-7.15v7.15h-5.579v-7.15h5.579Zm2.95 0h5.58v7.15h-5.58v-7.15Zm8.53 0h5.578v7.15h-5.578v-7.15Zm5.579-2.95H38.731v-5.907c0-.24.196-.436.437-.436h21.764c.24 0 .437.196.437.436v5.906Zm.457 34.805v25.848h-3.26v-27.83h1.279c1.092 0 1.98.89 1.98 1.982ZM51.37 69.22h4.244v27.829h-4.244v-27.83Zm-2.95 27.829h-4.017v-27.83h4.016v27.83Zm-8.247-27.83h1.28v27.83h-3.261V71.201c0-1.093.889-1.981 1.981-1.981ZM35.242 90.4v6.65H11.228v-6.65h24.014Z"/></g><defs><clipPath id="a"><path fill="#fff" d="M0 0h100v100H0z"/></clipPath></defs></svg>
